X:17
T:The Sligo Maid
M:C|
C:Traditional / Key of A Dorian / McCullough
O:Irish
R:Jig
S:McCullough's _121 Session Tunes_, p. 6
Z:JMcC-Y, July 31, 2000
K:Ador
"A"A2 BA (3B^cd ef|gedB AGEF|"G"G2 BG dGBG|
DEGA BedB|"A"A2 BA (3B^cd ef|gedB AG E2|
"G"B2 BG A2 GE|[1DEGA "A"BAAG:|[2DEGA "A"BA A2||
|:"A"eaag a2 ga|bgag ge d2|"G"eggf g2 ge|
dega bgag|"A"eaag a2 ga|bgag ge d2|
"G"eg (3gfg edBd|[1edgd "A"BA A2:|[2edgd "A"BAAG||
